calendar-export.svg

<svg  viewBox="0 0 24 24" fill="currentColor"><path  d="M12 22L16 18H13V12H11V18H8L12 22M19 3H18V1H16V3H8V1H6V3H5C3.9 3 3 3.9 3 5V19C3 20.11 3.9 21 5 21H8L6 19H5V8H19V19H18L16 21H19C20.11 21 21 20.11 21 19V5C21 3.9 20.11 3 19 3Z"/></svg>

<svg fill="currentColor" viewBox="0 0 24 24"><path d="m12 22 4-4h-3v-6h-2v6H8zm7-19h-1V1h-2v2H8V1H6v2H5c-1.1 0-2 .9-2 2v14a2 2 0 0 0 2 2h3l-2-2H5V8h14v11h-1l-2 2h3c1.11 0 2-.89 2-2V5a2 2 0 0 0-2-2"/></svg>
